X: 34883
T: Robin Kellegher
R: slip jig
M: 9/8
K: Gmajor
|BAG GDE G2c|BAG G2d efg|BAG GAG dBG|AEA Bcd e2d|
BAG GDE G2c|BAG G2d efg|BAG GAG dBG|AEA Bcd e2f||
gGe dBB dBB|gGe dBd e2f|gGe dBB dBB|AEA Bcd e2f|
gGe dBB dBB|gGe dBd e2f|gbg ege dcB|ABA ABd e2d|

